X:1
T:Francis T Robertson
S:Learned from Judith Tait, Edinburgh, c.1995
Z:Nigel Gatherer <gatherer@argonet.co.uk>
M:4/4
L:1/8
K:F
c|F2 FG AFAc|f2 fc dcAc|F2 FG AFAc|BGAF GCEG|
F2 FG (3AGF Ac|f2 fc dcAF|B2 dB A2 cA|fdcA cA F:|]
c|f2 fc dcAG|FAcf dcAF|f2 fc dcAF|Gggf ecce|
f2 fc dcAG|FAcf dcAF|B2 dB A2 cA|fdcA cA F:|]